**kern	**kern	**kern	**kern
*staff4	*staff3	*staff2	*staff1
*clefF4	*clefF4	*clefG2	*clefG2
*k[f#]	*k[f#]	*k[f#]	*k[f#]
*M2/4	*M2/4	*M2/4	*M2/4
*G:	*G:	*G:	*G:
=-	=-	=-	=-
32r	32r	32bLLL	32r
16r	16r	32a#	16r
.	.	32bJJ	.
8r	8r	32aLL	8r
.	.	32b	.
.	.	32f#	.
.	.	32bJJJ	.
=64	=64	=64	=64
2r	4r	32gLLL	(16bbLL
.	.	32b	.
.	.	32f#	16aa#)
.	.	32bJJ	.
.	.	32gLL	16bb
.	.	32b	.
.	.	32e#	16gg#JJ
.	.	32bJJJ	.
*	*clefF4	*	*
.	8r	32f#LLL	(16aa#LL
.	.	32b	.
.	.	32e#	16gg#)
.	.	32bJJ	.
.	16r	32f#LL	16aa#
.	.	32b	.
.	16BB	32d#	16ff#JJ
.	.	32bJJJ	.
=65	=65	=65	=65
2GGG 2GG	(16GLL	32eLLL	4gg
.	.	32g	.
.	16F#)	32d#	.
.	.	32gJJ	.
.	16G	32eLL	.
.	.	32g	.
.	16EJJ	32c#	.
.	.	32gJJJ	.
.	(16FLL	32dLLL	8r
.	.	32g	.
.	16E)	32c#	.
.	.	32gJJ	.
.	16F	32dLL	16r
.	.	32g	.
.	16DJJ	32B	16fff'
.	.	32gJJJ	.
=66	=66	=66	=66
16CC'LL	16C'LL	32cLLL	16eee'LL
.	.	32g	.
16GG'	16D'	32B	16fff'
.	.	32gJJ	.
16CC'	16C'	32cLL	16eee'
.	.	32g	.
16GG'JJ	16D'JJ	32B	16fff'JJ
.	.	32gJJJ	.
8CC	8C	32cLLL	16eee'LL
.	.	32g	.
.	.	32B	16ddd#'
.	.	32gJJ	.
8r	16r	32cLL	16eee'
.	.	32g	.
.	16A	32e	16ccc'JJ
.	.	32aJJJ	.
=67	=67	=67	=67
2r	(16dLL	32f#LLL	4aa
.	.	32a	.
.	16c#)	32g	.
.	.	32aJJ	.
.	16d	32f#LL	.
.	.	32a	.
.	16c#JJ	32g	.
.	.	32aJJJ	.
.	(16dLL	32f#LLL	8r
.	.	32a	.
.	16c#)	32g	.
.	.	32aJJ	.
.	16d	32f#LL	16r
.	.	32a	.
.	16dJJ	32f#	16ddd
.	.	32aJJJ	.
=68	=68	=68	=68
4r	2D	32gLLL	(16eeLL
.	.	32b	.
.	.	32f#	16dd#)
.	.	32aJJ	.
.	.	32gLL	16ee
.	.	32b	.
.	.	32f#	16dd#JJ
.	.	32aJJJ	.
8r	.	32gLLL	(16eeLL
.	.	32b	.
.	.	32f#	16dd#)
.	.	32aJJ	.
16r	.	32gLL	16ee
.	.	32b	.
16DD	.	32g	16eeJJ
.	.	32bJJJ	.
=69	=69	=69	=69
(16CLL	4.d	32aLLL	4.ff#
.	.	32dd	.
16BB)	.	32g#	.
.	.	32ddJJ	.
16C	.	32aLL	.
.	.	32dd	.
16BBJJ	.	32g#	.
.	.	32ddJJJ	.
(16CLL	.	32aLLL	.
.	.	32dd	.
16BB)	.	32g#	.
.	.	32ddJJ	.
16C	16r	32aLL	16r
.	.	32dd	.
16AAJJ	(16F#	32cc	16aa
.	.	32ddJJJ	.
=	=	=	=
*-	*-	*-	*-
